HTML/img/Rhythms/Rhythm_SixtenthBeamed.svg

<svg width="612" height="792" viewBox="0 0 40 40" xmlns="http://www.w3.org/2000/svg"><path class="Stem" fill="none" stroke="#000" stroke-width=".65" stroke-linecap="round" stroke-linejoin="bevel" d="M20.951 14.191v14.061M13.118 14.191v14.061"/><path class="Note" d="M25.021 10.498c.625 0 1.152.162 1.582.488.402.351.605.794.605 1.328 0 .898-.462 1.738-1.388 2.52-.936.781-1.94 1.171-3.006 1.171-.625 0-1.153-.162-1.582-.488a1.686 1.686 0 01-.607-1.328c0-.898.47-1.738 1.406-2.52.913-.781 1.909-1.171 2.99-1.171M17.188 10.498c.625 0 1.152.162 1.582.488.404.351.605.794.605 1.328 0 .898-.462 1.738-1.386 2.52-.938.781-1.94 1.171-3.008 1.171-.625 0-1.153-.162-1.582-.488a1.685 1.685 0 01-.606-1.328c0-.898.469-1.738 1.407-2.52.911-.781 1.907-1.171 2.988-1.171"/><path class="Beam" fill-rule="evenodd" d="M12.793 27.002h8.483v2.5h-8.483v-2.5M12.793 23.252h8.483v2.5h-8.483v-2.5"/></svg>

<?xml version="1.0" encoding="utf-8"?>
<svg width="612px" height="792px" viewBox="0 0 40 40" xmlns="http://www.w3.org/2000/svg">
  <title>Rhythm Reference</title>
  <desc>Generated by MuseScore 2.0.3</desc>
  <polyline class="Stem" fill="none" stroke="#000000" stroke-width="0.65" stroke-linecap="round" stroke-linejoin="bevel" points="20.951 14.191 20.951 28.252"/>
  <polyline class="Stem" fill="none" stroke="#000000" stroke-width="0.65" stroke-linecap="round" stroke-linejoin="bevel" points="13.118 14.191 13.118 28.252"/>
  <path class="Note" d="M 25.021 10.498 C 25.646 10.498 26.173 10.66 26.603 10.986 C 27.005 11.337 27.208 11.78 27.208 12.314 C 27.208 13.212 26.746 14.052 25.82 14.834 C 24.884 15.615 23.88 16.005 22.814 16.005 C 22.189 16.005 21.661 15.843 21.232 15.517 C 20.828 15.166 20.625 14.723 20.625 14.189 C 20.625 13.291 21.095 12.451 22.031 11.669 C 22.944 10.888 23.94 10.498 25.021 10.498"/>
  <path class="Note" d="M 17.188 10.498 C 17.813 10.498 18.34 10.66 18.77 10.986 C 19.174 11.337 19.375 11.78 19.375 12.314 C 19.375 13.212 18.913 14.052 17.989 14.834 C 17.051 15.615 16.049 16.005 14.981 16.005 C 14.356 16.005 13.828 15.843 13.399 15.517 C 12.995 15.166 12.793 14.723 12.793 14.189 C 12.793 13.291 13.262 12.451 14.2 11.669 C 15.111 10.888 16.107 10.498 17.188 10.498"/>
  <path class="Beam" fill-rule="evenodd" d="M 12.793 27.002 L 21.276 27.002 L 21.276 29.502 L 12.793 29.502 L 12.793 27.002"/>
  <path class="Beam" fill-rule="evenodd" d="M 12.793 23.252 L 21.276 23.252 L 21.276 25.752 L 12.793 25.752 L 12.793 23.252"/>
</svg>
